src/Svgs/level3.svg

<svg fill="none" height="270" viewBox="0 0 1024 270" width="1024" xmlns="http://www.w3.org/2000/svg"><g fill="#a0aec0"><path d="m1008.71 23.3496c-8.09 0-15.098 6.0346-15.098 15.2402 0 8.7135 6.309 15.38 15.098 15.38 8.03 0 14.96-6.1744 14.96-15.38s-6.93-15.2402-14.96-15.2402zm-1008.226188 2.2371v191.8303h149.046188v-44.742h-86.2678v-147.0883zm624.707188 0v191.8303h55.228v-191.8303zm383.519.4195c6.55 0 11.61 5.1341 11.61 12.5836 0 7.4886-5.06 12.7234-11.61 12.7234-7.27 0-11.882-5.7661-11.882-12.7234 0-7.4495 5.252-12.5836 11.882-12.5836zm-153.238.699c-42.634 0-62.639 25.3575-62.639 60.8209h34.675c0-6.6665.034-31.0396 25.587-31.0396 20.497 0 23.629 17.3934 23.629 24.3284 0 24.5301-20.413 25.5871-31.599 25.5871h-6.152v26.705c17.382 0 42.505 1.102 42.505 26.845 0 20.967-13.171 31.04-28.104 31.04-25.072 0-27.684-22.914-27.684-32.998l.28-.279h-36.492c0 59.025 47.985 63.058 65.854 63.058 38.137 0 64.456-25.235 64.456-60.821 0-32.153-21.856-42.029-28.523-43.903v-.559c10.755-4.81 22.79-16.8791 22.79-36.0733 0-39.988-33.293-52.7115-58.583-52.7115zm147.368 3.7751v16.918h2.8v-7.2705h2.65l4.34 7.2705h3.21l-4.75-7.4103c2.53-.2853 4.33-1.5436 4.33-4.614 0-3.434-2.06-4.8937-6.15-4.8937zm2.8 2.3769h3.35c1.68 0 3.64.1902 3.64 2.2371 0 2.4552-1.83 2.6566-3.92 2.6566h-3.07zm-772.219 41.3862c-44.669 0-78.858 29.1996-78.858 74.9426 0 46.425 34.468 72.006 79.137 72.006 32.5 0 67.594-11.515 77.18-46.14h-52.991c-3.993 8.384-11.907 12.444-20.693 12.444-14.647 0-27.404-10.794-27.404-27.125h105.702c.8-50.48-30.408-86.1276-82.073-86.1276zm299.211 0c-44.669 0-78.858 29.1996-78.858 74.9426 0 46.425 34.468 72.006 79.137 72.006 32.5 0 67.728-11.515 77.32-46.14h-52.991c-3.999 8.384-12.047 12.444-20.833 12.444-14.648 0-27.405-10.794-27.405-27.125h105.703c.8-50.48-30.402-86.1276-82.073-86.1276zm-228.044 3.7751 48.517 139.3985h61.8l47.118-139.3985h-53.27l-24.189 87.9455-24.468-87.9455zm-69.07 29.9215c13.048 0 24.608 11.526 24.608 24.328h-50.334c0-14.938 9.211-24.328 25.726-24.328zm299.211 0c13.053 0 24.608 11.526 24.608 24.328h-50.335c0-14.938 9.217-24.328 25.727-24.328zm-524.1783 129.471c-7.93047 0-10.206706 7.371-10.206706 16.079 0 9.486 2.734846 16.499 10.486406 16.499 4.0211 0 7.2705-2.774 7.2705-3.496 0-.229-.0951-.33-.2796-.559l-.9788-1.258c-.1398-.14-.2852-.42-.4194-.42-.3188 0-2.8076 2.797-5.4529 2.797-4.66436 0-6.57148-5.643-6.57148-14.122 0-7.791 1.21921-12.444 6.15198-12.444 2.651 0 5.274 2.657 5.5927 2.657.1846 0 .2853-.101.4195-.28l.9787-1.258c.1846-.23.2797-.476.2797-.699 0-.733-3.2494-3.496-7.2706-3.496zm48.5169 0c-7.3153 0-10.2067 6.555-10.2067 16.359 0 9.765 2.8467 16.219 10.2067 16.219 7.3209 0 10.3466-6.454 10.3466-16.219 0-9.759-3.076-16.359-10.3466-16.359zm319.6244 0c-7.936 0-10.207 7.371-10.207 16.079 0 9.486 2.729 16.499 10.486 16.499 4.022 0 7.271-2.774 7.271-3.496 0-.229-.095-.33-.28-.559l-.978-1.258c-.135-.14-.286-.42-.42-.42-.319 0-2.942 2.797-5.593 2.797-4.658 0-6.431-5.643-6.431-14.122 0-7.791 1.219-12.444 6.152-12.444 2.651 0 5.268 2.657 5.593 2.657.179 0 .285-.101.419-.28l.979-1.258c.184-.23.279-.476.279-.699 0-.733-3.249-3.496-7.27-3.496zm188.894 0c-7.321 0-10.207 6.555-10.207 16.359 0 9.765 2.842 16.219 10.207 16.219 7.315 0 10.347-6.454 10.347-16.219 0-9.759-3.076-16.359-10.347-16.359zm104.724 0c-4.799 0-9.088 3.003-9.088 8.249 0 9.435 13.422 8.233 13.422 15.8 0 3.054-2.131 5.173-5.592 5.173-3.222 0-5.945-1.409-6.852-1.817-.223-.14-.38-.28-.559-.28-.274 0-.425.196-.559.559l-.559 1.538c-.045.179-.28.42-.28.559 0 .23.19.465.419.56.683.318 4.117 2.237 8.39 2.237 5.626 0 9.647-3.395 9.647-8.949 0-3.008-1.191-5.123-3.635-7.13-3.68-3.009-9.788-3.887-9.788-8.669 0-3.054 2.126-4.474 4.894-4.474 2.623 0 5.011 1.085 5.872 1.538.224.134.381.279.56.279.319 0 .374-.195.559-.559l.559-1.538c.045-.184.14-.425.14-.559s-.056-.28-.28-.42c-.637-.318-3.59-2.097-7.27-2.097zm-567.522.699c-.363 0-.559.196-.559.56l-1.678 30.2c0 .364.196.56.559.56h2.657c.369 0 .559-.196.559-.56l.699-23.489c.045-.917-.095-2.153-.14-2.936h.14c.045 1.006.196 2.119.56 3.215l5.313 15.94c.139.414.29.419.699.419h1.398c.408 0 .38-.005.559-.419l5.593-15.94c.369-1.096.514-2.209.559-3.215h.14c-.045.783-.185 2.019-.14 2.936l.699 23.489c0 .364.196.56.559.56h2.657c.364 0 .559-.196.559-.56l-1.678-30.2c0-.364-.195-.56-.559-.56h-3.076c-.363 0-.279.051-.419.42l-5.453 15.799c-.229.688-.33 1.835-.559 2.797h-.14c-.179-1.007-.33-2.109-.56-2.797l-5.452-15.799c-.14-.369-.056-.42-.42-.42zm57.885 0c-.364 0-.559.196-.559.56l-1.818 30.2c0 .364.196.56.559.56h2.657c.363 0 .559-.196.559-.56l.699-23.489c.045-.917.045-2.153 0-2.936.045 1.006.196 2.119.559 3.215l5.313 15.94c.14.414.286.419.7.419h1.398c.408 0 .514-.005.699-.419l5.453-15.94c.369-1.096.514-2.209.559-3.215h.14c-.05.783-.045 2.019 0 2.936l.699 23.489c0 .364.196.56.559.56h2.657c.369 0 .559-.196.559-.56l-1.818-30.2c0-.364-.195-.56-.559-.56h-2.936c-.364 0-.42.051-.559.42l-5.453 15.799c-.23.688-.33 1.835-.56 2.797h-.139c-.185-1.007-.33-2.109-.56-2.797l-5.453-15.799c-.139-.369-.055-.42-.419-.42zm56.347 0c-.37 0-.56.196-.56.56v22.37c0 5.537 2.612 8.949 9.508 8.949 6.991 0 10.067-3.457 10.067-8.949v-22.37c0-.364-.196-.56-.559-.56h-2.657c-.369 0-.559.196-.559.56v22.231c0 4.166-2.092 6.152-6.292 6.152-4.295 0-5.733-2.4-5.733-6.152v-22.231c0-.364-.19-.56-.559-.56zm54.389 0c-.364 0-.559.241-.559.56v30.2c0 .364.195.56.559.56h2.377c.363 0 .559-.196.559-.56v-22.371c0-1.001-.056-2.321-.419-4.054h.139c.23 1.28.571 2.723 1.119 3.915l10.626 22.51c.185.319.336.56.699.56h2.517c.363 0 .559-.241.559-.56v-30.2c0-.364-.196-.56-.559-.56h-2.377c-.364 0-.559.196-.559.56v21.811c0 .828.279 1.835.419 2.797-.414-1.376-.565-2.355-1.118-3.496l-10.207-21.252c-.134-.28-.33-.42-.699-.42zm51.733 0c-.37 0-.56.19-.56.56v1.817c0 .364.19.559.56.559h4.054v25.308h-4.054c-.37 0-.56.195-.56.559v1.957c0 .369.19.56.56.56h12.024c.363 0 .559-.191.559-.56v-1.957c0-.364-.196-.559-.559-.559h-4.195v-25.308h4.195c.363 0 .559-.195.559-.559v-1.817c0-.37-.196-.56-.559-.56zm100.249 0c-.091.069-.07.19-.14.42l-9.088 29.781c-.134.324-.235.61-.28.839 0 .229.101.28.56.28h2.936c.548 0 .744-.241.839-.56l2.237-8.808h9.368l2.656 8.808c.095.319.151.56.699.56h2.937c.458 0 .559-.051.559-.28-.045-.229-.045-.515-.14-.839l-9.228-29.781c-.185-.504-.336-.42-.699-.42h-2.657c-.251 0-.467-.068-.559 0zm40.268 0c-.504 0-.699.235-.699.56v2.097c0 .363.19.559.559.559h6.851v27.544c0 .364.196.56.559.56h2.657c.363 0 .559-.196.559-.56v-27.544h6.432c.319 0 .565-.196.699-.559l.699-1.678c.039-.229.14-.515.14-.699 0-.274-.235-.28-.56-.28zm48.237 0c-.364 0-.559.19-.559.56v1.817c0 .364.195.559.559.559h4.195v25.308h-4.195c-.364 0-.559.195-.559.559v1.957c0 .369.195.56.559.56h12.164c.369 0 .559-.191.559-.56v-1.957c0-.364-.19-.559-.559-.559h-4.194v-25.308h4.194c.369 0 .559-.195.559-.559v-1.817c0-.37-.19-.56-.559-.56zm98.152 0c-.369 0-.559.241-.559.56v30.2c0 .364.19.56.559.56h2.377c.364 0 .42-.196.42-.56v-22.371c0-1.001-.056-2.321-.42-4.054h.14c.224 1.28.71 2.723 1.258 3.915l10.487 22.51c.184.319.335.56.699.56h2.517c.363 0 .559-.241.559-.56v-30.2c0-.364-.196-.56-.559-.56h-2.238c-.363 0-.559.196-.559.56v21.811c0 .828.28 1.835.42 2.797h-.14c-.414-1.376-.571-2.355-1.119-3.496l-10.067-21.252c-.134-.28-.33-.42-.699-.42zm-552.9804 2.377c5.1341 0 6.2918 5.313 6.2918 13.283 0 8.025-1.1129 13.283-6.2918 13.283-5.1733 0-6.152-5.258-6.152-13.283 0-7.97 1.0682-13.283 6.152-13.283zm508.5184 0c5.129 0 6.292 5.313 6.292 13.283 0 8.025-1.119 13.283-6.292 13.283-5.179 0-6.152-5.258-6.152-13.283 0-7.97 1.068-13.283 6.152-13.283zm-140.517 1.958h.14c.223 1.286.609 2.913.978 4.334l2.797 10.067h-7.69l2.796-10.067c.319-1.236.794-3.233.979-4.334z"/><path d="m791.575 0c-15.912 7.23699-75.083 43.1591-75.083 127.654 0 23.73 8.02 85.608 75.083 121.782v-8.11c-28.065-17.069-42.505-37.622-42.505-116.329 0-88.2584 18.495-100.9595 42.505-117.16718zm126.675 0v7.82982c24.015 16.20768 42.505 28.90878 42.505 117.16718 0 78.707-14.435 99.26-42.505 116.329v8.11c67.068-36.174 75.082-98.052 75.082-121.782 0-84.4949-59.165-120.41701-75.082-127.654z"/></g></svg>

<svg width="1024" height="270" viewBox="0 0 1024 270" fill="none" xmlns="http://www.w3.org/2000/svg">
<path d="M1008.71 23.3496C1000.62 23.3496 993.612 29.3842 993.612 38.5898C993.612 47.3033 999.921 53.9698 1008.71 53.9698C1016.74 53.9698 1023.67 47.7954 1023.67 38.5898C1023.67 29.3842 1016.74 23.3496 1008.71 23.3496ZM0.483812 25.5867V217.417H149.53V172.675H63.2622V25.5867H0.483812ZM625.191 25.5867V217.417H680.419V25.5867H625.191ZM1008.71 26.0062C1015.26 26.0062 1020.32 31.1403 1020.32 38.5898C1020.32 46.0784 1015.26 51.3132 1008.71 51.3132C1001.44 51.3132 996.828 45.5471 996.828 38.5898C996.828 31.1403 1002.08 26.0062 1008.71 26.0062ZM855.472 26.7052C812.838 26.7052 792.833 52.0627 792.833 87.5261H827.508C827.508 80.8596 827.542 56.4865 853.095 56.4865C873.592 56.4865 876.724 73.8799 876.724 80.8149C876.724 105.345 856.311 106.402 845.125 106.402H838.973V133.107C856.355 133.107 881.478 134.209 881.478 159.952C881.478 180.919 868.307 190.992 853.374 190.992C828.302 190.992 825.69 168.078 825.69 157.994L825.97 157.715H789.478C789.478 216.74 837.463 220.773 855.332 220.773C893.469 220.773 919.788 195.538 919.788 159.952C919.788 127.799 897.932 117.923 891.265 116.049V115.49C902.02 110.68 914.055 98.6109 914.055 79.4167C914.055 39.4287 880.762 26.7052 855.472 26.7052ZM1002.84 30.4803V47.3983H1005.64V40.1278H1008.29L1012.63 47.3983H1015.84L1011.09 39.988C1013.62 39.7027 1015.42 38.4444 1015.42 35.374C1015.42 31.94 1013.36 30.4803 1009.27 30.4803H1002.84ZM1005.64 32.8572H1008.99C1010.67 32.8572 1012.63 33.0474 1012.63 35.0943C1012.63 37.5495 1010.8 37.7509 1008.71 37.7509H1005.64V32.8572ZM233.421 74.2434C188.752 74.2434 154.563 103.443 154.563 149.186C154.563 195.611 189.031 221.192 233.7 221.192C266.2 221.192 301.294 209.677 310.88 175.052H257.889C253.896 183.436 245.982 187.496 237.196 187.496C222.549 187.496 209.792 176.702 209.792 160.371H315.494C316.294 109.891 285.086 74.2434 233.421 74.2434ZM532.632 74.2434C487.963 74.2434 453.774 103.443 453.774 149.186C453.774 195.611 488.242 221.192 532.911 221.192C565.411 221.192 600.639 209.677 610.231 175.052H557.24C553.241 183.436 545.193 187.496 536.407 187.496C521.759 187.496 509.002 176.702 509.002 160.371H614.705C615.505 109.891 584.303 74.2434 532.632 74.2434ZM304.588 78.0185L353.105 217.417H414.905L462.023 78.0185H408.753L384.564 165.964L360.096 78.0185H304.588ZM235.518 107.94C248.566 107.94 260.126 119.466 260.126 132.268H209.792C209.792 117.33 219.003 107.94 235.518 107.94ZM534.729 107.94C547.782 107.94 559.337 119.466 559.337 132.268H509.002C509.002 117.33 518.219 107.94 534.729 107.94ZM10.5507 237.411C2.62023 237.411 0.343994 244.782 0.343994 253.49C0.343994 262.976 3.07884 269.989 10.8304 269.989C14.8515 269.989 18.1009 267.215 18.1009 266.493C18.1009 266.264 18.0058 266.163 17.8213 265.934L16.8425 264.676C16.7027 264.536 16.5573 264.256 16.4231 264.256C16.1043 264.256 13.6155 267.053 10.9702 267.053C6.30584 267.053 4.39872 261.41 4.39872 252.931C4.39872 245.14 5.61793 240.487 10.5507 240.487C13.2017 240.487 15.8247 243.144 16.1434 243.144C16.328 243.144 16.4287 243.043 16.5629 242.864L17.5416 241.606C17.7262 241.376 17.8213 241.13 17.8213 240.907C17.8213 240.174 14.5719 237.411 10.5507 237.411ZM59.0676 237.411C51.7523 237.411 48.8609 243.966 48.8609 253.77C48.8609 263.535 51.7076 269.989 59.0676 269.989C66.3885 269.989 69.4142 263.535 69.4142 253.77C69.4142 244.011 66.3382 237.411 59.0676 237.411ZM378.692 237.411C370.756 237.411 368.485 244.782 368.485 253.49C368.485 262.976 371.214 269.989 378.971 269.989C382.993 269.989 386.242 267.215 386.242 266.493C386.242 266.264 386.147 266.163 385.962 265.934L384.984 264.676C384.849 264.536 384.698 264.256 384.564 264.256C384.245 264.256 381.622 267.053 378.971 267.053C374.313 267.053 372.54 261.41 372.54 252.931C372.54 245.14 373.759 240.487 378.692 240.487C381.343 240.487 383.96 243.144 384.285 243.144C384.464 243.144 384.57 243.043 384.704 242.864L385.683 241.606C385.867 241.376 385.962 241.13 385.962 240.907C385.962 240.174 382.713 237.411 378.692 237.411ZM567.586 237.411C560.265 237.411 557.379 243.966 557.379 253.77C557.379 263.535 560.221 269.989 567.586 269.989C574.901 269.989 577.933 263.535 577.933 253.77C577.933 244.011 574.857 237.411 567.586 237.411ZM672.31 237.411C667.511 237.411 663.222 240.414 663.222 245.66C663.222 255.095 676.644 253.893 676.644 261.46C676.644 264.514 674.513 266.633 671.052 266.633C667.83 266.633 665.107 265.224 664.2 264.816C663.977 264.676 663.82 264.536 663.641 264.536C663.367 264.536 663.216 264.732 663.082 265.095L662.523 266.633C662.478 266.812 662.243 267.053 662.243 267.192C662.243 267.422 662.433 267.657 662.662 267.752C663.345 268.07 666.779 269.989 671.052 269.989C676.678 269.989 680.699 266.594 680.699 261.04C680.699 258.032 679.508 255.917 677.064 253.91C673.384 250.901 667.276 250.023 667.276 245.241C667.276 242.187 669.402 240.767 672.17 240.767C674.793 240.767 677.181 241.852 678.042 242.305C678.266 242.439 678.423 242.584 678.602 242.584C678.921 242.584 678.976 242.389 679.161 242.025L679.72 240.487C679.765 240.303 679.86 240.062 679.86 239.928C679.86 239.794 679.804 239.648 679.58 239.508C678.943 239.19 675.99 237.411 672.31 237.411ZM104.788 238.11C104.425 238.11 104.229 238.306 104.229 238.67L102.551 268.87C102.551 269.234 102.747 269.43 103.11 269.43H105.767C106.136 269.43 106.326 269.234 106.326 268.87L107.025 245.381C107.07 244.464 106.93 243.228 106.885 242.445H107.025C107.07 243.451 107.221 244.564 107.585 245.66L112.898 261.6C113.037 262.014 113.188 262.019 113.597 262.019H114.995C115.403 262.019 115.375 262.014 115.554 261.6L121.147 245.66C121.516 244.564 121.661 243.451 121.706 242.445H121.846C121.801 243.228 121.661 244.464 121.706 245.381L122.405 268.87C122.405 269.234 122.601 269.43 122.964 269.43H125.621C125.985 269.43 126.18 269.234 126.18 268.87L124.502 238.67C124.502 238.306 124.307 238.11 123.943 238.11H120.867C120.504 238.11 120.588 238.161 120.448 238.53L114.995 254.329C114.766 255.017 114.665 256.164 114.436 257.126H114.296C114.117 256.119 113.966 255.017 113.736 254.329L108.284 238.53C108.144 238.161 108.228 238.11 107.864 238.11H104.788ZM162.673 238.11C162.309 238.11 162.114 238.306 162.114 238.67L160.296 268.87C160.296 269.234 160.492 269.43 160.855 269.43H163.512C163.875 269.43 164.071 269.234 164.071 268.87L164.77 245.381C164.815 244.464 164.815 243.228 164.77 242.445C164.815 243.451 164.966 244.564 165.329 245.66L170.642 261.6C170.782 262.014 170.928 262.019 171.342 262.019H172.74C173.148 262.019 173.254 262.014 173.439 261.6L178.892 245.66C179.261 244.564 179.406 243.451 179.451 242.445H179.591C179.541 243.228 179.546 244.464 179.591 245.381L180.29 268.87C180.29 269.234 180.486 269.43 180.849 269.43H183.506C183.875 269.43 184.065 269.234 184.065 268.87L182.247 238.67C182.247 238.306 182.052 238.11 181.688 238.11H178.752C178.388 238.11 178.332 238.161 178.193 238.53L172.74 254.329C172.51 255.017 172.41 256.164 172.18 257.126H172.041C171.856 256.119 171.711 255.017 171.481 254.329L166.028 238.53C165.889 238.161 165.973 238.11 165.609 238.11H162.673ZM219.02 238.11C218.65 238.11 218.46 238.306 218.46 238.67V261.04C218.46 266.577 221.072 269.989 227.968 269.989C234.959 269.989 238.035 266.532 238.035 261.04V238.67C238.035 238.306 237.839 238.11 237.476 238.11H234.819C234.45 238.11 234.26 238.306 234.26 238.67V260.901C234.26 265.067 232.168 267.053 227.968 267.053C223.673 267.053 222.235 264.653 222.235 260.901V238.67C222.235 238.306 222.045 238.11 221.676 238.11H219.02ZM273.409 238.11C273.045 238.11 272.85 238.351 272.85 238.67V268.87C272.85 269.234 273.045 269.43 273.409 269.43H275.786C276.149 269.43 276.345 269.234 276.345 268.87V246.499C276.345 245.498 276.289 244.178 275.926 242.445H276.065C276.295 243.725 276.636 245.168 277.184 246.36L287.81 268.87C287.995 269.189 288.146 269.43 288.509 269.43H291.026C291.389 269.43 291.585 269.189 291.585 268.87V238.67C291.585 238.306 291.389 238.11 291.026 238.11H288.649C288.285 238.11 288.09 238.306 288.09 238.67V260.481C288.09 261.309 288.369 262.316 288.509 263.278C288.095 261.902 287.944 260.923 287.391 259.782L277.184 238.53C277.05 238.25 276.854 238.11 276.485 238.11H273.409ZM325.142 238.11C324.772 238.11 324.582 238.3 324.582 238.67V240.487C324.582 240.851 324.772 241.046 325.142 241.046H329.196V266.354H325.142C324.772 266.354 324.582 266.549 324.582 266.913V268.87C324.582 269.239 324.772 269.43 325.142 269.43H337.166C337.529 269.43 337.725 269.239 337.725 268.87V266.913C337.725 266.549 337.529 266.354 337.166 266.354H332.971V241.046H337.166C337.529 241.046 337.725 240.851 337.725 240.487V238.67C337.725 238.3 337.529 238.11 337.166 238.11H325.142ZM425.391 238.11C425.3 238.179 425.321 238.3 425.251 238.53L416.163 268.311C416.029 268.635 415.928 268.921 415.883 269.15C415.883 269.379 415.984 269.43 416.443 269.43H419.379C419.927 269.43 420.123 269.189 420.218 268.87L422.455 260.062H431.823L434.479 268.87C434.574 269.189 434.63 269.43 435.178 269.43H438.115C438.573 269.43 438.674 269.379 438.674 269.15C438.629 268.921 438.629 268.635 438.534 268.311L429.306 238.53C429.121 238.026 428.97 238.11 428.607 238.11H425.95C425.699 238.11 425.483 238.042 425.391 238.11ZM465.659 238.11C465.155 238.11 464.96 238.345 464.96 238.67V240.767C464.96 241.13 465.15 241.326 465.519 241.326H472.37V268.87C472.37 269.234 472.566 269.43 472.929 269.43H475.586C475.949 269.43 476.145 269.234 476.145 268.87V241.326H482.577C482.896 241.326 483.142 241.13 483.276 240.767L483.975 239.089C484.014 238.86 484.115 238.574 484.115 238.39C484.115 238.116 483.88 238.11 483.555 238.11H465.659ZM513.896 238.11C513.532 238.11 513.337 238.3 513.337 238.67V240.487C513.337 240.851 513.532 241.046 513.896 241.046H518.091V266.354H513.896C513.532 266.354 513.337 266.549 513.337 266.913V268.87C513.337 269.239 513.532 269.43 513.896 269.43H526.06C526.429 269.43 526.619 269.239 526.619 268.87V266.913C526.619 266.549 526.429 266.354 526.06 266.354H521.866V241.046H526.06C526.429 241.046 526.619 240.851 526.619 240.487V238.67C526.619 238.3 526.429 238.11 526.06 238.11H513.896ZM612.048 238.11C611.679 238.11 611.489 238.351 611.489 238.67V268.87C611.489 269.234 611.679 269.43 612.048 269.43H614.425C614.789 269.43 614.845 269.234 614.845 268.87V246.499C614.845 245.498 614.789 244.178 614.425 242.445H614.565C614.789 243.725 615.275 245.168 615.823 246.36L626.31 268.87C626.494 269.189 626.645 269.43 627.009 269.43H629.526C629.889 269.43 630.085 269.189 630.085 268.87V238.67C630.085 238.306 629.889 238.11 629.526 238.11H627.288C626.925 238.11 626.729 238.306 626.729 238.67V260.481C626.729 261.309 627.009 262.316 627.149 263.278H627.009C626.595 261.902 626.438 260.923 625.89 259.782L615.823 238.53C615.689 238.25 615.493 238.11 615.124 238.11H612.048ZM59.0676 240.487C64.2017 240.487 65.3594 245.8 65.3594 253.77C65.3594 261.795 64.2465 267.053 59.0676 267.053C53.8943 267.053 52.9156 261.795 52.9156 253.77C52.9156 245.8 53.9838 240.487 59.0676 240.487ZM567.586 240.487C572.715 240.487 573.878 245.8 573.878 253.77C573.878 261.795 572.759 267.053 567.586 267.053C562.407 267.053 561.434 261.795 561.434 253.77C561.434 245.8 562.502 240.487 567.586 240.487ZM427.069 242.445H427.209C427.432 243.731 427.818 245.358 428.187 246.779L430.984 256.846H423.294L426.09 246.779C426.409 245.543 426.884 243.546 427.069 242.445Z" fill="#A0AEC0"/>
<path d="M791.575 0C775.663 7.23699 716.492 43.1591 716.492 127.654C716.492 151.384 724.512 213.262 791.575 249.436V241.326C763.51 224.257 749.07 203.704 749.07 124.997C749.07 36.7386 767.565 24.0375 791.575 7.82982V0ZM918.25 0V7.82982C942.265 24.0375 960.755 36.7386 960.755 124.997C960.755 203.704 946.32 224.257 918.25 241.326V249.436C985.318 213.262 993.332 151.384 993.332 127.654C993.332 43.1591 934.167 7.23699 918.25 0Z" fill="#A0AEC0"/>
</svg>
